icon-themes/breeze_svg/cmd/lc_scrollbar.svg

<svg viewBox="0 0 24 24" xmlns="http://www.w3.org/2000/svg"><path d="m7 4v16h10v-16zm5 1 .28125.21875 3.71875 3-.59375.78125-3.40625-2.75-3.40625 2.75-.59375-.78125 3.71875-3zm-3.40625 10 3.40625 2.75 3.40625-2.75.59375.78125-3.71875 2.96875-.28125.25-.28125-.25-3.71875-2.96875z" fill="#4d4d4d"/><path d="m8 11v2h8v-2z" fill="#1d99f3"/></svg>

<svg xmlns="http://www.w3.org/2000/svg" viewBox="0 0 24 24">
 <path 
     style="fill:#4d4d4d" 
     d="M 7 4 L 7 20 L 17 20 L 17 4 L 7 4 z M 12 5 L 12.28125 5.21875 L 16 8.21875 L 15.40625 9 L 12 6.25 L 8.59375 9 L 8 8.21875 L 11.71875 5.21875 L 12 5 z M 8.59375 15 L 12 17.75 L 15.40625 15 L 16 15.78125 L 12.28125 18.75 L 12 19 L 11.71875 18.75 L 8 15.78125 L 8.59375 15 z "
     />
 <path 
     style="fill:#1d99f3" 
     d="M 8 11 L 8 13 L 16 13 L 16 11 L 8 11 z "
     />
 </svg>
